package/converter/svg/duotone/barcode-read.svg

<svg xmlns="http://www.w3.org/2000/svg" viewBox="0 0 576 512"><!-- Font Awesome Pro 6.0.0-alpha2 by @fontawesome - https://fontawesome.com License - https://fontawesome.com/license (Commercial License) --><defs><style>.fa-secondary{opacity:.4}</style></defs><path d="M136 464H48V376C48 362.799 37.199 352 24 352S0 362.799 0 376V480C0 497.6 14.4 512 32 512H136C149.199 512 160 501.199 160 488C160 474.799 149.199 464 136 464ZM136 0H32C14.4 0 0 14.4 0 32V136C0 149.199 10.801 160 24 160S48 149.199 48 136V48H136C149.199 48 160 37.199 160 24C160 10.799 149.199 0 136 0ZM544 0H440C426.801 0 416 10.799 416 24C416 37.199 426.801 48 440 48H528V136C528 149.199 538.801 160 552 160S576 149.199 576 136V32C576 14.4 561.6 0 544 0ZM552 352C538.801 352 528 362.799 528 376V464H440C426.801 464 416 474.799 416 488C416 501.199 426.801 512 440 512H544C561.6 512 576 497.6 576 480V376C576 362.799 565.199 352 552 352Z" class="fa-secondary"/><path d="M240 128C231.199 128 224 135.199 224 144V368C224 376.799 231.199 384 240 384S256 376.799 256 368V144C256 135.199 248.801 128 240 128ZM168 128H152C138.801 128 128 138.799 128 152V360C128 373.199 138.801 384 152 384H168C181.199 384 192 373.199 192 360V152C192 138.799 181.199 128 168 128ZM448 360V152C448 138.799 437.199 128 424 128H408C394.801 128 384 138.799 384 152V360C384 373.199 394.801 384 408 384H424C437.199 384 448 373.199 448 360ZM328 128H312C298.801 128 288 138.799 288 152V360C288 373.199 298.801 384 312 384H328C341.199 384 352 373.199 352 360V152C352 138.799 341.199 128 328 128Z" class="fa-primary"/></svg>

<svg xmlns="http://www.w3.org/2000/svg" viewBox="0 0 576 512"><!--! Font Awesome Pro 6.6.0 by @fontawesome - https://fontawesome.com License - https://fontawesome.com/license (Commercial License) Copyright 2024 Fonticons, Inc. --><defs><style>.fa-secondary{opacity:.4}</style></defs><path class="fa-secondary" d="M0 56l0 80c0 13.3 10.7 24 24 24s24-10.7 24-24l0-80c0-4.4 3.6-8 8-8l80 0c13.3 0 24-10.7 24-24s-10.7-24-24-24L56 0C25.1 0 0 25.1 0 56zM0 376l0 80c0 30.9 25.1 56 56 56l80 0c13.3 0 24-10.7 24-24s-10.7-24-24-24l-80 0c-4.4 0-8-3.6-8-8l0-80c0-13.3-10.7-24-24-24s-24 10.7-24 24zM416 24c0 13.3 10.7 24 24 24l80 0c4.4 0 8 3.6 8 8l0 80c0 13.3 10.7 24 24 24s24-10.7 24-24l0-80c0-30.9-25.1-56-56-56L440 0c-13.3 0-24 10.7-24 24zm0 464c0 13.3 10.7 24 24 24l80 0c30.9 0 56-25.1 56-56l0-80c0-13.3-10.7-24-24-24s-24 10.7-24 24l0 80c0 4.4-3.6 8-8 8l-80 0c-13.3 0-24 10.7-24 24z"/><path class="fa-primary" d="M152 128c-13.3 0-24 10.7-24 24l0 208c0 13.3 10.7 24 24 24l16 0c13.3 0 24-10.7 24-24l0-208c0-13.3-10.7-24-24-24l-16 0zm160 0c-13.3 0-24 10.7-24 24l0 208c0 13.3 10.7 24 24 24l16 0c13.3 0 24-10.7 24-24l0-208c0-13.3-10.7-24-24-24l-16 0zm72 24l0 208c0 13.3 10.7 24 24 24l16 0c13.3 0 24-10.7 24-24l0-208c0-13.3-10.7-24-24-24l-16 0c-13.3 0-24 10.7-24 24zM240 128c-8.8 0-16 7.2-16 16l0 224c0 8.8 7.2 16 16 16s16-7.2 16-16l0-224c0-8.8-7.2-16-16-16z"/></svg>
